X:614
T:Miss Colston
R:Strathspey
C:Niel Gow
B:The Athole Collection
M:C
L:1/8
K:A
d|c/d/e A>e c<e a>e|=g>de>g B/c/d =Gd|c>eA>e c<e a>e|=g>d e/d/c/B/ c<AA:|
a|e<a a>=g eaaf|=g<b e>g B<=G B/c/d/B/|e<a a>=g eaag|e>a g/a/b/g/ a<A A>a|
e<a a>=g e<a a>f|=g<b e>g B<=G d>B|c/d/e a>e c<e a>e|=g>d e/d/c/B/ =c<AA||

